X: 553
T: Dersim Dört Dağ İçinde
C: Muzaffer Sarısözen
O: Turkey
F: http://compmusic.upf.edu/node/140
N: huseyni--turku--curcuna--dersim_dort--tunceli
N: makam= huseyni
N: form= turku
N: usul= curcuna = 10/8
M: 10/8
L: 1/16
K: C _2/4B ^3/4f  
Q: 1/4=180
%%MIDI tuningsystem comma53
f2g2 a2g2 a2f2 g2e4d2  | f2g2 a2g2 a2g2 =b2a6  | \
w:   |   | 
f2g2 a2g2 a2f2 g2e4d2  | 
w:   | 
f2g2 a2g2 a2g2 =b2a6  | g4 =b2a4a2 b2g4a2  | \
w:   |   | 
f4 a2g4g2 a2f4g2  | 
w:   | 
e4 g2f4f2 g2e4=f2  | d4 =f2e4e2 f2d4e2  | \
w:   |   | 
c4 e2d4d2 e2c4d2  | 
w:   | 
B4 d2c4c2 d2B4c2  | A4 c2B4B2 c2A4G2  | \
w:   |   | 
A2B2 c2d2 B2B2 A2A6  | 
w:   | 
z4 z2g4g2 f2g6  | fag2 g4 aff2 e2e4d2  | \
w:  Der sim  *  dört   |  dağ_ *  *  i *  *  çin *  de    | 
d4 z2g2 z2ga f2g6  | 
w:  *  Der sim  *  *  dört   | 
fag2 g4 aff2 e2e4d2  | d4 c2e4e2 d2e4c2  | \
w:  dağ_ *  *  i *  *  çin *  de    |  *  *  Gü lü  *  bar  | 
e4 d2g2 d2d2 B2c4B2  | 
w:  dağ_ *  i *  çin *  de    | 
z4 z2d4d4c2 d2B2  | d4 c2d2 B2c2 d2B4A2  | \
w:  Hak  Der si  |  mi  *  sak *  la *  sın    | 
A4 G2c4c2 B2B4A2  | 
w:  *  *  Bir  gü *  lüm   | 
A2c2 B2cd B2B2 A2A4z2  | z4 z2e4e2 d2e4c2  | \
w:  var_ *  *  i *  *  çin *  de    |  Hak  Der *  si  | 
e4 d2g2 d2d2 B2c4B2  | 
w:  mi  *  sak *  la *  sın    | 
z4 z2d4d4c2 d2B2  | d4 c2d2 B2c2 d2B4A2  | \
w:  Bir  yâ rim   |  var_ *  i *  çin *  de    | 
A4 G2c4c2 B2B4A2  | 
w:  *  *  Bir  gü *  lüm   | 
A2c2 B2cd B2B2 A2A4z2  | z4 z2g4g2 f2g6  | \
w:  var_ *  *  i *  *  çin *  de    |  Nol du  *  a  | 
fag2 g4 aff2 e2e4d2  | 
w:  ğa *  *  ma  *  *  nol *  du    | 
d4 z2g2 z2ga f2g6  | fag2 g4 aff2 e2e4d2  | \
w:  *  Nol du  *  *  a  |  ğa *  *  ma  *  *  nol *  du    | 
d4 c2e4e2 d2e4c2  | 
w:  *  *  Sa ra *  rıp   | 
e4 d2g2 d2d2 B2c4B2  | z4 z2d4d4c2 d2B2  | \
w:  ren *  gi  *  sol *  du    |  A ğam  bur  | 
d4 c2d2 B2c2 d2B4A2  | 
w:  dan  *  gi *  de *  li    | 
A4 G2c4c2 B2B4A2  | A2c2 B2cd B2B2 A2A4z2  | \
w:  *  *  Bu  yer *  ler   |  vî *  *  rân_ *  *  ol *  du    | 
z4 z2e4e2 d2e4c2  | 
w:  A ğam  *  bur  | 
e4 d2g2 d2d2 B2c4B2  | z4 z2d4d4c2 d2B2  | \
w:  dan  *  gi *  de *  li    |  Bu  yer ler   | 
d4 c2d2 B2c2 d2B4A2  | 
w:  vî *  rân_ *  ol *  du    | 
A4 G4 c2c2 B2B4A2  | A2c2 B2cd B2B2 A2A6  | |


